X:1
T: Eagers
C:
R:Strathspey
Q: 128
K:A
M:4/4
L:1/16
|:e2|cA3 E3A c3A e3c|d3B F3B d3B f3d|c3A E3A c3A e3c|((3d2e2f2) ((3e2f2g2) aA3 A2e2|
cA3 E3A c3A e3c|d3B F3B d3B f3d|c3A E3A c3A e3c|((3d2e2f2) ((3e2f2g2) aA3 A2e2|
a3e c3e Be3 a3g|((3f2d2f2) ((3f2b2a2) ge3 e3g|a3e c3e ce3 a3g|((3f2d2f2) ((3b2a2g2) a4 a3e|
a3e c3e Be3 a3g|((3f2d2f2) ((3f2b2a2) ge3 e3g|((3a2g2a2) ((3b2a2g2) ((3a2g2f2) ((3g2f2e2) |((3f2d2f2) ((3b2a2g2) a4 a2:|
